X: 42121
T: Warriors
R: jig
M: 6/8
K: Eminor
E3 G2 E|F2 G F2 E|GFE F2 G|E6|
E3 G2 E|F2 G F2 E|GFE F2 G|B4B B|
G2 B E2 B|G2 B E2 B|GFE B2 E|c2 E B2 E|
cBA B2 G|A2 B c2 d|e2 f e2 d|B6||

